images_elementary_svg/cmd/sc_dsbrowserexplorer.svg

<svg height="16" width="16" xmlns="http://www.w3.org/2000/svg" xmlns:xlink="http://www.w3.org/1999/xlink"><linearGradient id="a" gradientTransform="matrix(.4922 0 0 .4584 4.51 -4.794)" gradientUnits="userSpaceOnUse" x1="23.732" x2="23.732" y1="5.394" y2="39.735"><stop offset="0" stop-color="#90dbec"/><stop offset=".262" stop-color="#55c1ec"/><stop offset=".705" stop-color="#3689e6"/><stop offset="1" stop-color="#2b63a0"/></linearGradient><linearGradient id="b" gradientUnits="userSpaceOnUse" x1="17.458" x2="17.458" xlink:href="#c" y1="-2.374" y2="10.62"/><linearGradient id="c"><stop offset="0" stop-color="#b48be3"/><stop offset="1" stop-color="#8441d1"/></linearGradient><linearGradient id="d" gradientUnits="userSpaceOnUse" x1="15.911" x2="15.911" xlink:href="#c" y1="2.264" y2="6.1"/><linearGradient id="e" gradientTransform="matrix(0 -.5372 .57682 0 -15.997 19.866)" gradientUnits="userSpaceOnUse" x1="40.958" x2="18.681" y1="46.971" y2="46.971"><stop offset="0" stop-color="#fff"/><stop offset=".45" stop-color="#fff" stop-opacity=".235"/><stop offset=".65" stop-color="#fff" stop-opacity=".157"/><stop offset="1" stop-color="#fff" stop-opacity=".392"/></linearGradient><path d="m1.974.5c-.817 0-1.474.657-1.474 1.474v12.526h14v-12.527c0-.816-.657-1.473-1.474-1.473z" fill="#e9e9e9" stroke="#8c8c8c"/><path d="m2.205 1.5c-.39 0-.705.372-.705.834v1.666h12v-1.666c0-.462-.314-.834-.705-.834z" fill="none" opacity=".8" stroke="#fff"/><path d="m1 5h13v9h-13z" fill="#fff"/><path d="m1 4.5h13" fill="none" stroke="#8c8c8c"/><path d="m16.71 9.864 7.037-6.155-7.055-5.863v3.647l-6.192.007.02 4.65 6.19-.007z" display="block" fill="url(#a)" transform="matrix(.64678 0 0 .64678 -6.29 8.536)"/><g stroke-miterlimit="7"><path d="m4.518 14.916 4.55-3.98-4.562-3.793v2.36l-4.006.002.013 3.007 4.005-.004z" style="display:block;fill:#46a9eb;fill-opacity:.984;stroke:#004372;stroke-width:.999922;stroke-linejoin:round;stroke-opacity:.49"/><g stroke-width="1.546"><path d="m17.69-.08v2.574l-6.19.006.018 2.648 6.193-.005v2.61l4.472-4.044z" display="block" fill="none" stroke="url(#e)" transform="matrix(.64678 0 0 .64678 -6.29 8.536)"/><path d="m16.71 9.864 7.037-6.155-7.055-5.863v3.647l-6.192.007.02 4.65 6.19-.007z" display="block" fill="url(#b)" stroke="#6326b9" stroke-linejoin="round" stroke-opacity=".49" transform="matrix(-.64678 0 0 .64678 22.29 4.536)"/></g></g><path d="m16.69-2.154v3.648l-6.19.006.018 4.648 6.193-.005v3.72l7.039-6.153z" display="block" fill="url(#d)" transform="matrix(-.64678 0 0 .64678 22.29 4.536)"/><path d="m17.69-.08v2.574l-6.19.006.018 2.648 6.193-.005v2.61l4.472-4.044z" display="block" fill="none" stroke="url(#e)" stroke-miterlimit="7" stroke-width="1.546" transform="matrix(-.64678 0 0 .64678 22.29 4.536)"/></svg>

<svg xmlns="http://www.w3.org/2000/svg" xmlns:xlink="http://www.w3.org/1999/xlink" height="16" width="16"><defs><linearGradient id="c" gradientTransform="matrix(.4922 0 0 .4584 4.51 -4.794)" gradientUnits="userSpaceOnUse" x1="23.732" x2="23.732" y1="5.394" y2="39.735"><stop offset="0" stop-color="#90dbec"/><stop offset=".262" stop-color="#55c1ec"/><stop offset=".705" stop-color="#3689e6"/><stop offset="1" stop-color="#2b63a0"/></linearGradient><linearGradient id="b" gradientTransform="matrix(0 -.5372 .57682 0 -15.997 19.866)" gradientUnits="userSpaceOnUse" x1="40.958" x2="18.681" y1="46.971" y2="46.971"><stop offset="0" stop-color="#fff"/><stop offset=".45" stop-color="#fff" stop-opacity=".235"/><stop offset=".65" stop-color="#fff" stop-opacity=".157"/><stop offset="1" stop-color="#fff" stop-opacity=".392"/></linearGradient><linearGradient xlink:href="#a" id="e" x1="17.458" y1="-2.374" x2="17.458" y2="10.62" gradientUnits="userSpaceOnUse"/><linearGradient id="a"><stop offset="0" stop-color="#b48be3"/><stop offset="1" stop-color="#8441d1"/></linearGradient><linearGradient xlink:href="#a" id="f" x1="15.911" y1="2.264" x2="15.911" y2="6.1" gradientUnits="userSpaceOnUse"/><linearGradient xlink:href="#b" id="g" gradientUnits="userSpaceOnUse" gradientTransform="matrix(0 -.5372 .57682 0 -15.997 19.866)" x1="40.958" y1="46.971" x2="18.681" y2="46.971"/><linearGradient xlink:href="#b" id="d" gradientUnits="userSpaceOnUse" gradientTransform="matrix(0 -.5372 .57682 0 -15.997 19.866)" x1="40.958" y1="46.971" x2="18.681" y2="46.971"/></defs><path d="M1.974.5C1.157.5.5 1.157.5 1.974V14.5h14V1.973C14.5 1.157 13.843.5 13.026.5z" fill="#e9e9e9" stroke="#8c8c8c"/><path d="M2.205 1.5c-.39 0-.705.372-.705.834V4h12V2.334c0-.462-.314-.834-.705-.834z" fill="none" opacity=".8" stroke="#fff"/><path d="M1 5h13v9H1z" fill="#fff"/><path d="M1 4.5h13" fill="none" stroke="#8c8c8c"/><path display="block" d="M16.71 9.864l7.037-6.155-7.055-5.863v3.647L10.5 1.5l.02 4.65 6.19-.007z" fill="url(#c)" transform="translate(-6.29 8.536) scale(.64678)"/><path d="M4.518 14.916l4.55-3.98-4.562-3.793v2.36L.5 9.505l.013 3.007 4.005-.004z" display="block" fill="#46a9eb" fill-opacity=".984" stroke="#004372" stroke-width=".99992188" stroke-linejoin="round" stroke-miterlimit="7" stroke-opacity=".49"/><path d="M17.69-.08v2.574L11.5 2.5l.018 2.648 6.193-.005v2.61l4.472-4.044z" display="block" fill="none" stroke="url(#d)" stroke-width="1.546" stroke-miterlimit="7" transform="translate(-6.29 8.536) scale(.64678)"/><g><path d="M16.71 9.864l7.037-6.155-7.055-5.863v3.647L10.5 1.5l.02 4.65 6.19-.007z" display="block" fill="url(#e)" stroke="#6326b9" stroke-width="1.546" stroke-linejoin="round" stroke-miterlimit="7" stroke-opacity=".49" transform="matrix(-.64678 0 0 .64678 22.29 4.536)"/><path d="M16.69-2.154v3.648L10.5 1.5l.018 4.648 6.193-.005v3.72L23.75 3.71z" display="block" fill="url(#f)" transform="matrix(-.64678 0 0 .64678 22.29 4.536)"/><path d="M17.69-.08v2.574L11.5 2.5l.018 2.648 6.193-.005v2.61l4.472-4.044z" display="block" fill="none" stroke="url(#g)" stroke-width="1.546" stroke-miterlimit="7" transform="matrix(-.64678 0 0 .64678 22.29 4.536)"/></g></svg>
